img/ic1.svg

<svg width="43" height="39" viewBox="0 0 43 39" fill="none" xmlns="http://www.w3.org/2000/svg">
<path d="M24.9051 30.9692V27.1204H31.5879C32.6896 27.1203 33.7743 26.8455 34.7453 26.3207C35.7162 25.7959 36.5434 25.0373 37.1531 24.1124C37.7628 23.1875 38.1362 22.125 38.24 21.0195C38.3438 19.914 38.1747 18.7998 37.7479 17.7761C37.3212 16.7523 36.6498 15.8508 35.7938 15.1518C34.9377 14.4528 33.9234 13.9779 32.8412 13.7695C31.759 13.5611 30.6425 13.6256 29.591 13.9572C28.5395 14.2889 27.5857 14.8774 26.8145 15.6704V15.5742C26.8145 12.5119 25.6075 9.57508 23.459 7.40974C21.3106 5.2444 18.3966 4.02792 15.3583 4.02792C12.3199 4.02792 9.40597 5.2444 7.25752 7.40974C5.10907 9.57508 3.90208 12.5119 3.90208 15.5742V15.5876H0.0833485V15.5742C0.0804575 11.9817 1.32425 8.50125 3.59932 5.73566C5.87439 2.97007 9.03748 1.09347 12.5408 0.430832C16.0441 -0.231805 19.6671 0.361253 22.7823 2.1073C25.8974 3.85335 28.3086 6.64244 29.5983 9.99156C31.0348 9.71309 32.5132 9.74016 33.9387 10.071C35.3642 10.4019 36.7054 11.0293 37.8763 11.913C39.0473 12.7967 40.0221 13.9172 40.7383 15.2027C41.4546 16.4882 41.8965 17.9104 42.0357 19.378C42.1749 20.8456 42.0083 22.3264 41.5467 23.7254C41.085 25.1243 40.3384 26.4107 39.3548 27.5019C38.3712 28.5932 37.1722 29.4653 35.8347 30.0624C34.4972 30.6595 33.0507 30.9683 31.5879 30.9692H24.9051ZM9.63017 34.8179H28.7238V38.6667H9.63017V34.8179ZM9.63017 19.4229H24.9051V23.2717H9.63017V19.4229ZM1.99271 27.1204H21.0864V30.9692H1.99271V27.1204Z" fill="url(#paint0_linear)"/>
<defs>
<linearGradient id="paint0_linear" x1="-4.31615e-07" y1="5.42721e-07" x2="30" y2="39" gradientUnits="userSpaceOnUse">
<stop stop-color="#FECA52"/>
<stop offset="0.515625" stop-color="#FFCE5F"/>
<stop offset="1" stop-color="#FF644E"/>
</linearGradient>
</defs>
</svg>

<svg width="43" height="39" viewBox="0 0 43 39" fill="none" xmlns="http://www.w3.org/2000/svg"><path d="M24.905 30.97v-3.85h6.683a6.641 6.641 0 0 0 3.157-.8 6.702 6.702 0 0 0 2.408-2.208 6.77 6.77 0 0 0 .595-6.336 6.73 6.73 0 0 0-1.954-2.624 6.633 6.633 0 0 0-6.203-1.195 6.674 6.674 0 0 0-2.777 1.713v-.096c0-3.062-1.206-5.999-3.355-8.164a11.411 11.411 0 0 0-8.1-3.382A11.411 11.411 0 0 0 7.257 7.41a11.592 11.592 0 0 0-3.356 8.164v.014H.083v-.014A15.47 15.47 0 0 1 3.6 5.736 15.252 15.252 0 0 1 12.541.43a15.172 15.172 0 0 1 10.241 1.676 15.36 15.36 0 0 1 6.816 7.885 10.422 10.422 0 0 1 4.34.079c1.426.33 2.767.958 3.938 1.842a10.557 10.557 0 0 1 2.862 3.29 10.643 10.643 0 0 1 .809 8.522 10.604 10.604 0 0 1-2.192 3.777 10.505 10.505 0 0 1-3.52 2.56 10.432 10.432 0 0 1-4.247.907h-6.683zM9.63 34.817h19.094v3.849H9.63v-3.85zm0-15.395h15.275v3.849H9.63v-3.85zM1.993 27.12h19.093v3.85H1.993v-3.85z" fill="url(#a)"/><defs><linearGradient id="a" x2="30" y2="39" gradientUnits="userSpaceOnUse"><stop stop-color="#FECA52"/><stop offset=".516" stop-color="#FFCE5F"/><stop offset="1" stop-color="#FF644E"/></linearGradient></defs></svg>
